src/assets/filled/Teacher.svg

<svg width="24" height="24" viewBox="0 0 24 24"  xmlns="http://www.w3.org/2000/svg">
<path d="M16.8301 15.6402C17.5001 15.2002 18.3801 15.6802 18.3801 16.4802V17.7702C18.3801 19.0402 17.3901 20.4002 16.2001 20.8002L13.0101 21.8602C12.4501 22.0502 11.5401 22.0502 10.9901 21.8602L7.80012 20.8002C6.60012 20.4002 5.62012 19.0402 5.62012 17.7702V16.4702C5.62012 15.6802 6.50012 15.2002 7.16012 15.6302L9.22012 16.9702C10.0101 17.5002 11.0101 17.7602 12.0101 17.7602C13.0101 17.7602 14.0101 17.5002 14.8001 16.9702L16.8301 15.6402Z" />
<path d="M19.98 6.46006L13.99 2.53006C12.91 1.82006 11.13 1.82006 10.05 2.53006L4.03002 6.46006C2.10002 7.71006 2.10002 10.5401 4.03002 11.8001L5.63002 12.8401L10.05 15.7201C11.13 16.4301 12.91 16.4301 13.99 15.7201L18.38 12.8401L19.75 11.9401V15.0001C19.75 15.4101 20.09 15.7501 20.5 15.7501C20.91 15.7501 21.25 15.4101 21.25 15.0001V10.0801C21.65 8.79006 21.24 7.29006 19.98 6.46006Z" />
</svg>

<?xml version="1.0" encoding="UTF-8"?>
<svg width="24" height="24" viewBox="0 0 24 24" xmlns="http://www.w3.org/2000/svg">
 <path d="m16.83 15.64c0.67-0.44 1.55 0.04 1.55 0.84v1.29c0 1.27-0.99 2.63-2.18 3.03l-3.19 1.06c-0.56 0.19-1.47 0.19-2.02 0l-3.19-1.06c-1.2-0.4-2.18-1.76-2.18-3.03v-1.3c0-0.79 0.88-1.27 1.54-0.84l2.06 1.34c0.78998 0.53 1.79 0.79 2.79 0.79s2-0.26 2.79-0.79l2.03-1.33z"/>
 <path d="m19.98 6.4601-5.99-3.93c-1.08-0.71-2.86-0.71-3.94 0l-6.02 3.93c-1.93 1.25-1.93 4.08 0 5.34l1.6 1.04 4.42 2.88c1.08 0.71 2.86 0.71 3.94 0l4.39-2.88 1.37-0.9v3.06c0 0.41 0.34 0.75 0.75 0.75s0.75-0.34 0.75-0.75v-4.92c0.4-1.29-0.01-2.79-1.27-3.62z"/>
</svg>
